Newaita-dark/apps/32/libreoffice-base.svg

<svg height="32" viewBox="0 0 32 32" width="32" xmlns="http://www.w3.org/2000/svg" xmlns:xlink="http://www.w3.org/1999/xlink"><linearGradient id="a" gradientTransform="matrix(.0744119 0 0 .062506 -2.630336 13.438785)" gradientUnits="userSpaceOnUse" x1="254" x2="254" y1="233.5" y2="254.666672"><stop offset="0" stop-opacity=".27451"/><stop offset="1" stop-opacity="0"/></linearGradient><linearGradient id="b"><stop offset="0" stop-opacity=".313726"/><stop offset=".222222" stop-opacity=".27451"/><stop offset="1" stop-opacity="0"/></linearGradient><radialGradient id="c" cx="450.908936" cy="189.579361" gradientTransform="matrix(.00000017 -.0781325 -.140638 -.0000001 50.476849 63.595333)" gradientUnits="userSpaceOnUse" r="21.166656" xlink:href="#b"/><radialGradient id="d" cx="450.908936" cy="189.579361" gradientTransform="matrix(-.00000017 .0781325 .140638 .0000001 -18.723815 -7.527479)" gradientUnits="userSpaceOnUse" r="21.166656" xlink:href="#b"/><radialGradient id="e" cx="450.908936" cy="189.579361" gradientTransform="matrix(-.00000017 -.0781325 .140638 -.0000001 -18.723815 63.595333)" gradientUnits="userSpaceOnUse" r="21.166656" xlink:href="#b"/><radialGradient id="f" cx="450.908936" cy="189.579361" gradientTransform="matrix(.00000017 .0781325 -.140638 .0000001 50.476847 -7.527479)" gradientUnits="userSpaceOnUse" r="21.166656" xlink:href="#b"/><linearGradient id="g"><stop offset="0" stop-color="#ec407a"/><stop offset="1" stop-color="#f06292"/></linearGradient><linearGradient id="h" gradientUnits="userSpaceOnUse" x1="15.87648" x2="15.87648" xlink:href="#g" y1="28.03386419623" y2="2.89610343548"/><linearGradient id="i" gradientUnits="userSpaceOnUse" x1="15.87648" x2="15.87648" y1="26.71082419623" y2="4.21914343548"><stop offset="0" stop-color="#e0e0e0"/><stop offset="1" stop-color="#eee"/></linearGradient><linearGradient id="j" gradientUnits="userSpaceOnUse" x1="15.876481" x2="15.876481" xlink:href="#g" y1="19.76487819623" y2="10.50359718741"/><path d="m7.609375 28.035156h16.535156v1.320313h-16.535156zm0 0" fill="url(#a)"/><path d="m24.144531 28.035156h2.648438v-1.324218h-2.648438zm0 0" fill="url(#c)"/><path d="m7.609375 28.035156h-2.648437v1.320313h2.648437zm0 0" fill="url(#d)"/><path d="m7.609375 28.035156h-2.648437v-1.324218h2.648437zm0 0" fill="url(#e)"/><path d="m24.144531 28.035156h2.648438v1.320313h-2.648438zm0 0" fill="url(#f)"/><path d="m6.613281 2.894531c-.730469 0-1.320312.589844-1.320312 1.324219v22.492188c0 .734374.589843 1.324218 1.320312 1.324218h18.523438c.734375 0 1.324219-.589844 1.324219-1.324218v-15.054688l-8.761719-8.761719zm13.894531 0 5.953126 5.957031v-4.632812c0-.734375-.589844-1.324219-1.324219-1.324219zm0 0" fill="url(#h)"/><path d="m7.277344 4.21875c-.367188 0-.664063.296875-.664063.660156v21.171875c0 .363281.296875.660157.664063.660157h17.199218c.367188 0 .660157-.296876.660157-.660157v-13.894531l-7.9375-7.9375zm0 0" fill="url(#i)"/><path d="m6.613281 2.894531c-.730469 0-1.320312.589844-1.320312 1.324219v.332031c0-.734375.589843-1.324219 1.320312-1.324219h11.085938l8.761719 8.761719v-.332031l-8.761719-8.761719zm13.894531 0 .332032.332031h4.296875c.734375 0 1.324219.589844 1.324219 1.324219v-.332031c0-.734375-.589844-1.324219-1.324219-1.324219zm0 0" fill="#fff" fill-opacity=".392157"/><path d="m7.277344 4.21875c-.367188 0-.664063.296875-.664063.660156v.496094c0-.363281.296875-.660156.664063-.660156h9.921875l7.9375 7.9375v-.496094l-7.9375-7.9375zm0 0" fill-opacity=".235294"/><path d="m6.613281 26.074219v.3125c0 .367187.296875.660156.664063.660156h17.199218c.367188 0 .660157-.292969.660157-.660156v-.3125c0 .367187-.292969.660156-.660157.660156h-17.199218c-.367188 0-.664063-.292969-.664063-.660156zm0 0" fill="#fff" fill-opacity=".392157"/><path d="m440.036742 255.093763c-22.202605 0-40.153648 17.951043-40.153648 39.91745v1280.192776c0 21.966407 17.951043 39.91745 40.153648 39.91745h1039.979482c22.202605 0 39.91745-17.951043 39.91745-39.91745v-840.156034l-479.954192-479.954192zm0 0" fill="none" stroke="#212121" stroke-linecap="round" stroke-linejoin="round" stroke-width="11.338583" transform="scale(.016538)"/><path d="m20.507812 2.894531 5.953126 5.957031v-.324218l-5.632813-5.632813zm-15.214843 23.492188v.324219c0 .734374.589843 1.324218 1.320312 1.324218h18.523438c.734375 0 1.324219-.589844 1.324219-1.324218v-.324219c0 .734375-.589844 1.324219-1.324219 1.324219h-18.523438c-.730469 0-1.320312-.589844-1.320312-1.324219zm0 0" fill-opacity=".235294"/><path d="m399.883094 175.022665c-44.169013 0-79.8349 35.665888-79.8349 80.071098v1360.027676c0 44.405211 35.665887 80.071098 79.8349 80.071098h1120.05058c44.40521 0 80.071098-35.665887 80.071098-80.071098v-910.306819l-529.791955-529.791955zm840.156034 0 359.965644 360.201842v-280.130744c0-44.40521-35.665888-80.071098-80.071098-80.071098zm0 0" fill="none" stroke="#212121" stroke-linecap="round" stroke-linejoin="round" stroke-width="11.338583" transform="scale(.016538)"/><path d="m15.875 10.503906c-2.378906 0-4.296875.886719-4.296875 1.984375 0 1.097657 1.917969 1.984375 4.296875 1.984375 2.382812 0 4.300781-.886718 4.300781-1.984375 0-1.097656-1.917969-1.984375-4.300781-1.984375zm-3.726562 3.96875c-.363282.292969-.570313.628906-.570313.992188 0 1.101562 1.917969 1.984375 4.296875 1.984375 2.382812 0 4.300781-.882813 4.300781-1.984375 0-.363282-.207031-.699219-.570312-.992188-.742188.59375-2.132813.992188-3.730469.992188s-2.984375-.398438-3.726562-.992188zm0 2.976563c-.363282.292969-.570313.628906-.570313.992187 0 1.101563 1.917969 1.984375 4.296875 1.984375 2.382812 0 4.300781-.882812 4.300781-1.984375 0-.363281-.207031-.699218-.570312-.992187-.742188.59375-2.132813.992187-3.730469.992187s-2.984375-.398437-3.726562-.992187zm0 0" fill="url(#j)"/><path d="m15.875 10.503906c-2.378906 0-4.296875.886719-4.296875 1.984375 0 .054688.003906.109375.011719.164063.183594-1.019532 2.023437-1.816406 4.285156-1.816406s4.105469.796874 4.285156 1.816406c.011719-.054688.015625-.109375.015625-.164063 0-1.097656-1.917969-1.984375-4.300781-1.984375zm-3.726562 3.96875c-.363282.292969-.570313.628906-.570313.992188 0 .054687.003906.109375.011719.164062.054687-.296875.25-.578125.558594-.824218.742187.59375 2.128906.992187 3.726562.992187s2.988281-.398437 3.730469-.992187c.308593.246093.503906.527343.554687.824218.011719-.054687.015625-.109375.015625-.164062 0-.363282-.207031-.699219-.570312-.992188-.742188.59375-2.132813.992188-3.730469.992188s-2.984375-.398438-3.726562-.992188zm0 2.976563c-.363282.292969-.570313.628906-.570313.992187 0 .054688.003906.109375.011719.164063.054687-.296875.25-.578125.558594-.824219.742187.59375 2.128906.992188 3.726562.992188s2.988281-.398438 3.730469-.992188c.308593.246094.503906.527344.554687.824219.011719-.054688.015625-.109375.015625-.164063 0-.363281-.207031-.699218-.570312-.992187-.742188.59375-2.132813.992187-3.730469.992187s-2.984375-.398437-3.726562-.992187zm0 0" fill="#fff" fill-opacity=".392157"/><path d="m11.609375 12.734375c-.019531.082031-.03125.164063-.03125.25 0 1.097656 1.917969 1.984375 4.296875 1.984375 2.382812 0 4.300781-.886719 4.300781-1.984375 0-.085937-.011719-.167969-.03125-.25-.265625.984375-2.066406 1.738281-4.269531 1.738281-2.199219 0-4.003906-.753906-4.265625-1.738281zm0 2.980469c-.019531.078125-.03125.164062-.03125.246094 0 1.101562 1.917969 1.984374 4.296875 1.984374 2.382812 0 4.300781-.882812 4.300781-1.984374 0-.082032-.011719-.167969-.03125-.246094-.265625.980468-2.066406 1.734375-4.269531 1.734375-2.199219 0-4.003906-.753907-4.265625-1.734375zm0 2.976562c-.019531.078125-.03125.164063-.03125.246094 0 1.101562 1.917969 1.984375 4.296875 1.984375 2.382812 0 4.300781-.882813 4.300781-1.984375 0-.082031-.011719-.167969-.03125-.246094-.265625.980469-2.066406 1.734375-4.269531 1.734375-2.199219 0-4.003906-.753906-4.265625-1.734375zm0 0" fill-opacity=".235294"/><path d="m253.975747-46.953548c-38.058866 0-68.743436 14.186146-68.743436 31.746969 0 17.560823 30.68457 31.746968 68.743436 31.746968 38.121359 0 68.805929-14.186145 68.805929-31.746968s-30.68457-31.746969-68.805929-31.746969zm-59.619307 63.493937c-5.811945 4.687052-9.124129 10.061539-9.124129 15.873484 0 17.623317 30.68457 31.746968 68.743436 31.746968 38.121359 0 68.805929-14.123651 68.805929-31.746968 0-5.811945-3.312184-11.186432-9.124129-15.873484-11.873866 9.499093-34.121741 15.873484-59.6818 15.873484-25.56006 0-47.745441-6.374391-59.619307-15.873484zm0 47.620452c-5.811945 4.687053-9.124129 10.06154-9.124129 15.873485 0 17.623317 30.68457 31.746968 68.743436 31.746968 38.121359 0 68.805929-14.123651 68.805929-31.746968 0-5.811945-3.312184-11.186432-9.124129-15.873485-11.873866 9.499093-34.121741 15.873485-59.6818 15.873485-25.56006 0-47.745441-6.374392-59.619307-15.873485zm0 0" fill="none" stroke="#212121" stroke-linecap="round" stroke-linejoin="round" stroke-width="3" transform="matrix(.062506 0 0 .062506 0 13.438783)"/></svg>

<?xml version="1.0" encoding="UTF-8"?>
<svg xmlns="http://www.w3.org/2000/svg" xmlns:xlink="http://www.w3.org/1999/xlink" width="32px" height="32px" viewBox="0 0 32 32" version="1.1">
<defs>
<linearGradient id="linear0" gradientUnits="userSpaceOnUse" x1="254" y1="233.5" x2="254" y2="254.666672" gradientTransform="matrix(0.0744119,0,0,0.062506,-2.630336,13.438785)">
<stop offset="0" style="stop-color:rgb(0%,0%,0%);stop-opacity:0.27451;"/>
<stop offset="1" style="stop-color:rgb(0%,0%,0%);stop-opacity:0;"/>
</linearGradient>
<radialGradient id="radial0" gradientUnits="userSpaceOnUse" cx="450.908936" cy="189.579361" fx="450.908936" fy="189.579361" r="21.166656" gradientTransform="matrix(0.00000017417,-0.0781325,-0.140638,-0.000000101539,50.476849,63.595333)">
<stop offset="0" style="stop-color:rgb(0%,0%,0%);stop-opacity:0.313726;"/>
<stop offset="0.222222" style="stop-color:rgb(0%,0%,0%);stop-opacity:0.27451;"/>
<stop offset="1" style="stop-color:rgb(0%,0%,0%);stop-opacity:0;"/>
</radialGradient>
<radialGradient id="radial1" gradientUnits="userSpaceOnUse" cx="450.908936" cy="189.579361" fx="450.908936" fy="189.579361" r="21.166656" gradientTransform="matrix(-0.00000017417,0.0781325,0.140638,0.000000101539,-18.723815,-7.527479)">
<stop offset="0" style="stop-color:rgb(0%,0%,0%);stop-opacity:0.313726;"/>
<stop offset="0.222222" style="stop-color:rgb(0%,0%,0%);stop-opacity:0.27451;"/>
<stop offset="1" style="stop-color:rgb(0%,0%,0%);stop-opacity:0;"/>
</radialGradient>
<radialGradient id="radial2" gradientUnits="userSpaceOnUse" cx="450.908936" cy="189.579361" fx="450.908936" fy="189.579361" r="21.166656" gradientTransform="matrix(-0.00000017417,-0.0781325,0.140638,-0.000000101539,-18.723815,63.595333)">
<stop offset="0" style="stop-color:rgb(0%,0%,0%);stop-opacity:0.313726;"/>
<stop offset="0.222222" style="stop-color:rgb(0%,0%,0%);stop-opacity:0.27451;"/>
<stop offset="1" style="stop-color:rgb(0%,0%,0%);stop-opacity:0;"/>
</radialGradient>
<radialGradient id="radial3" gradientUnits="userSpaceOnUse" cx="450.908936" cy="189.579361" fx="450.908936" fy="189.579361" r="21.166656" gradientTransform="matrix(0.00000017417,0.0781325,-0.140638,0.000000101539,50.476847,-7.527479)">
<stop offset="0" style="stop-color:rgb(0%,0%,0%);stop-opacity:0.313726;"/>
<stop offset="0.222222" style="stop-color:rgb(0%,0%,0%);stop-opacity:0.27451;"/>
<stop offset="1" style="stop-color:rgb(0%,0%,0%);stop-opacity:0;"/>
</radialGradient>
<linearGradient id="linear1" gradientUnits="userSpaceOnUse" x1="254" y1="233.5" x2="254" y2="-168.666672" gradientTransform="matrix(0.062506,0,0,0.062506,0,13.438783)">
<stop offset="0" style="stop-color:rgb(87.843138%,87.843138%,87.843138%);stop-opacity:1;"/>
<stop offset="1" style="stop-color:rgb(93.333334%,93.333334%,93.333334%);stop-opacity:1;"/>
</linearGradient>
<linearGradient id="linear2" gradientUnits="userSpaceOnUse" x1="413.712219" y1="-474.701691" x2="413.712219" y2="-72.535034" gradientTransform="matrix(0.062506,0,0,0.062506,0,13.438783)">
<stop offset="0" style="stop-color:rgb(92.54902%,25.098041%,47.843137%);stop-opacity:1;"/>
<stop offset="1" style="stop-color:rgb(94.117647%,38.431373%,57.254905%);stop-opacity:1;"/>
</linearGradient>
<linearGradient id="linear3" gradientUnits="userSpaceOnUse" x1="940" y1="1215.118164" x2="940" y2="655.118103" gradientTransform="matrix(0.016538,0,0,0.016538,0.330761,-0.33076)">
<stop offset="0" style="stop-color:rgb(92.54902%,25.098041%,47.843137%);stop-opacity:1;"/>
<stop offset="1" style="stop-color:rgb(94.117647%,38.431373%,57.254905%);stop-opacity:1;"/>
</linearGradient>
</defs>
<g id="surface1">
<path style=" stroke:none;fill-rule:nonzero;fill:url(#linear0);" d="M 7.609375 28.035156 L 24.144531 28.035156 L 24.144531 29.355469 L 7.609375 29.355469 Z M 7.609375 28.035156 "/>
<path style=" stroke:none;fill-rule:nonzero;fill:url(#radial0);" d="M 24.144531 28.035156 L 26.792969 28.035156 L 26.792969 26.710938 L 24.144531 26.710938 Z M 24.144531 28.035156 "/>
<path style=" stroke:none;fill-rule:nonzero;fill:url(#radial1);" d="M 7.609375 28.035156 L 4.960938 28.035156 L 4.960938 29.355469 L 7.609375 29.355469 Z M 7.609375 28.035156 "/>
<path style=" stroke:none;fill-rule:nonzero;fill:url(#radial2);" d="M 7.609375 28.035156 L 4.960938 28.035156 L 4.960938 26.710938 L 7.609375 26.710938 Z M 7.609375 28.035156 "/>
<path style=" stroke:none;fill-rule:nonzero;fill:url(#radial3);" d="M 24.144531 28.035156 L 26.792969 28.035156 L 26.792969 29.355469 L 24.144531 29.355469 Z M 24.144531 28.035156 "/>
<path style=" stroke:none;fill-rule:nonzero;fill:url(#linear1);" d="M 19.90625 2.894531 L 6.613281 2.894531 C 5.882812 2.894531 5.292969 3.484375 5.292969 4.21875 L 5.292969 26.710938 C 5.292969 27.445312 5.882812 28.035156 6.613281 28.035156 L 25.136719 28.035156 C 25.871094 28.035156 26.460938 27.445312 26.460938 26.710938 L 26.460938 8.90625 Z M 19.90625 2.894531 "/>
<path style=" stroke:none;fill-rule:nonzero;fill:url(#linear2);" d="M 19.90625 2.894531 L 26.460938 8.90625 L 26.460938 4.21875 C 26.460938 3.484375 25.871094 2.894531 25.136719 2.894531 Z M 19.90625 2.894531 "/>
<path style=" stroke:none;fill-rule:nonzero;fill:rgb(0%,0%,0%);fill-opacity:0.235294;" d="M 5.292969 26.378906 L 5.292969 26.710938 C 5.292969 27.445312 5.882812 28.035156 6.613281 28.035156 L 25.136719 28.035156 C 25.871094 28.035156 26.460938 27.445312 26.460938 26.710938 L 26.460938 26.378906 C 26.460938 27.113281 25.871094 27.703125 25.136719 27.703125 L 6.613281 27.703125 C 5.882812 27.703125 5.292969 27.113281 5.292969 26.378906 Z M 5.292969 26.378906 "/>
<path style=" stroke:none;fill-rule:nonzero;fill:rgb(100%,100%,100%);fill-opacity:1;" d="M 6.613281 2.894531 C 5.882812 2.894531 5.292969 3.484375 5.292969 4.21875 L 5.292969 4.878906 C 5.292969 4.148438 5.882812 3.558594 6.613281 3.558594 L 19.90625 3.558594 L 26.460938 9.566406 L 26.460938 8.90625 L 19.90625 2.894531 Z M 6.613281 2.894531 "/>
<path style=" stroke:none;fill-rule:nonzero;fill:rgb(100%,100%,100%);fill-opacity:0.392157;" d="M 19.90625 2.894531 L 20.628906 3.558594 L 25.136719 3.558594 C 25.871094 3.558594 26.460938 4.148438 26.460938 4.878906 L 26.460938 4.21875 C 26.460938 3.484375 25.871094 2.894531 25.136719 2.894531 Z M 19.90625 2.894531 "/>
<path style=" stroke:none;fill-rule:nonzero;fill:rgb(0%,0%,0%);fill-opacity:0.235294;" d="M 19.90625 2.894531 L 26.460938 8.90625 L 26.460938 8.355469 L 20.507812 2.894531 Z M 19.90625 2.894531 "/>
<path style="fill:none;stroke-width:11.338583;stroke-linecap:round;stroke-linejoin:round;stroke:rgb(12.941177%,12.941177%,12.941177%);stroke-opacity:1;stroke-miterlimit:4;" d="M 1203.664647 175.022665 L 399.883094 175.022665 C 355.714081 175.022665 320.048194 210.688553 320.048194 255.093763 L 320.048194 1615.121439 C 320.048194 1659.52665 355.714081 1695.192537 399.883094 1695.192537 L 1519.933674 1695.192537 C 1564.338884 1695.192537 1600.004772 1659.52665 1600.004772 1615.121439 L 1600.004772 538.531278 Z M 1203.664647 175.022665 " transform="matrix(0.016538,0,0,0.016538,0,0)"/>
<path style="fill:none;stroke-width:3;stroke-linecap:round;stroke-linejoin:round;stroke:rgb(12.941177%,12.941177%,12.941177%);stroke-opacity:1;stroke-miterlimit:4;" d="M 318.469588 -168.691922 L 423.334574 -72.513607 L 423.334574 -147.506445 C 423.334574 -159.255323 413.897975 -168.691922 402.149097 -168.691922 Z M 318.469588 -168.691922 " transform="matrix(0.062506,0,0,0.062506,0,13.438783)"/>
<path style=" stroke:none;fill-rule:nonzero;fill:url(#linear3);" d="M 15.875 10.503906 C 13.496094 10.503906 11.578125 11.390625 11.578125 12.488281 C 11.578125 13.585938 13.496094 14.472656 15.875 14.472656 C 18.257812 14.472656 20.175781 13.585938 20.175781 12.488281 C 20.175781 11.390625 18.257812 10.503906 15.875 10.503906 Z M 12.148438 14.472656 C 11.785156 14.765625 11.578125 15.101562 11.578125 15.464844 C 11.578125 16.566406 13.496094 17.449219 15.875 17.449219 C 18.257812 17.449219 20.175781 16.566406 20.175781 15.464844 C 20.175781 15.101562 19.96875 14.765625 19.605469 14.472656 C 18.863281 15.066406 17.472656 15.464844 15.875 15.464844 C 14.277344 15.464844 12.890625 15.066406 12.148438 14.472656 Z M 12.148438 17.449219 C 11.785156 17.742188 11.578125 18.078125 11.578125 18.441406 C 11.578125 19.542969 13.496094 20.425781 15.875 20.425781 C 18.257812 20.425781 20.175781 19.542969 20.175781 18.441406 C 20.175781 18.078125 19.96875 17.742188 19.605469 17.449219 C 18.863281 18.042969 17.472656 18.441406 15.875 18.441406 C 14.277344 18.441406 12.890625 18.042969 12.148438 17.449219 Z M 12.148438 17.449219 "/>
<path style=" stroke:none;fill-rule:nonzero;fill:rgb(100%,100%,100%);fill-opacity:0.392157;" d="M 15.875 10.503906 C 13.496094 10.503906 11.578125 11.390625 11.578125 12.488281 C 11.578125 12.542969 11.582031 12.597656 11.589844 12.652344 C 11.773438 11.632812 13.613281 10.835938 15.875 10.835938 C 18.136719 10.835938 19.980469 11.632812 20.160156 12.652344 C 20.171875 12.597656 20.175781 12.542969 20.175781 12.488281 C 20.175781 11.390625 18.257812 10.503906 15.875 10.503906 Z M 12.148438 14.472656 C 11.785156 14.765625 11.578125 15.101562 11.578125 15.464844 C 11.578125 15.519531 11.582031 15.574219 11.589844 15.628906 C 11.644531 15.332031 11.839844 15.050781 12.148438 14.804688 C 12.890625 15.398438 14.277344 15.796875 15.875 15.796875 C 17.472656 15.796875 18.863281 15.398438 19.605469 14.804688 C 19.914062 15.050781 20.109375 15.332031 20.160156 15.628906 C 20.171875 15.574219 20.175781 15.519531 20.175781 15.464844 C 20.175781 15.101562 19.96875 14.765625 19.605469 14.472656 C 18.863281 15.066406 17.472656 15.464844 15.875 15.464844 C 14.277344 15.464844 12.890625 15.066406 12.148438 14.472656 Z M 12.148438 17.449219 C 11.785156 17.742188 11.578125 18.078125 11.578125 18.441406 C 11.578125 18.496094 11.582031 18.550781 11.589844 18.605469 C 11.644531 18.308594 11.839844 18.027344 12.148438 17.78125 C 12.890625 18.375 14.277344 18.773438 15.875 18.773438 C 17.472656 18.773438 18.863281 18.375 19.605469 17.78125 C 19.914062 18.027344 20.109375 18.308594 20.160156 18.605469 C 20.171875 18.550781 20.175781 18.496094 20.175781 18.441406 C 20.175781 18.078125 19.96875 17.742188 19.605469 17.449219 C 18.863281 18.042969 17.472656 18.441406 15.875 18.441406 C 14.277344 18.441406 12.890625 18.042969 12.148438 17.449219 Z M 12.148438 17.449219 "/>
<path style=" stroke:none;fill-rule:nonzero;fill:rgb(0%,0%,0%);fill-opacity:0.235294;" d="M 11.609375 12.734375 C 11.589844 12.816406 11.578125 12.898438 11.578125 12.984375 C 11.578125 14.082031 13.496094 14.96875 15.875 14.96875 C 18.257812 14.96875 20.175781 14.082031 20.175781 12.984375 C 20.175781 12.898438 20.164062 12.816406 20.144531 12.734375 C 19.878906 13.71875 18.078125 14.472656 15.875 14.472656 C 13.675781 14.472656 11.871094 13.71875 11.609375 12.734375 Z M 11.609375 15.714844 C 11.589844 15.792969 11.578125 15.878906 11.578125 15.960938 C 11.578125 17.0625 13.496094 17.945312 15.875 17.945312 C 18.257812 17.945312 20.175781 17.0625 20.175781 15.960938 C 20.175781 15.878906 20.164062 15.792969 20.144531 15.714844 C 19.878906 16.695312 18.078125 17.449219 15.875 17.449219 C 13.675781 17.449219 11.871094 16.695312 11.609375 15.714844 Z M 11.609375 18.691406 C 11.589844 18.769531 11.578125 18.855469 11.578125 18.9375 C 11.578125 20.039062 13.496094 20.921875 15.875 20.921875 C 18.257812 20.921875 20.175781 20.039062 20.175781 18.9375 C 20.175781 18.855469 20.164062 18.769531 20.144531 18.691406 C 19.878906 19.671875 18.078125 20.425781 15.875 20.425781 C 13.675781 20.425781 11.871094 19.671875 11.609375 18.691406 Z M 11.609375 18.691406 "/>
<path style="fill:none;stroke-width:3;stroke-linecap:round;stroke-linejoin:round;stroke:rgb(12.941177%,12.941177%,12.941177%);stroke-opacity:1;stroke-miterlimit:4;" d="M 253.975747 -46.953548 C 215.916881 -46.953548 185.232311 -32.767402 185.232311 -15.206579 C 185.232311 2.354244 215.916881 16.540389 253.975747 16.540389 C 292.097106 16.540389 322.781676 2.354244 322.781676 -15.206579 C 322.781676 -32.767402 292.097106 -46.953548 253.975747 -46.953548 Z M 194.35644 16.540389 C 188.544495 21.227441 185.232311 26.601928 185.232311 32.413873 C 185.232311 50.03719 215.916881 64.160841 253.975747 64.160841 C 292.097106 64.160841 322.781676 50.03719 322.781676 32.413873 C 322.781676 26.601928 319.469492 21.227441 313.657547 16.540389 C 301.783681 26.039482 279.535806 32.413873 253.975747 32.413873 C 228.415687 32.413873 206.230306 26.039482 194.35644 16.540389 Z M 194.35644 64.160841 C 188.544495 68.847894 185.232311 74.222381 185.232311 80.034326 C 185.232311 97.657643 215.916881 111.781294 253.975747 111.781294 C 292.097106 111.781294 322.781676 97.657643 322.781676 80.034326 C 322.781676 74.222381 319.469492 68.847894 313.657547 64.160841 C 301.783681 73.659934 279.535806 80.034326 253.975747 80.034326 C 228.415687 80.034326 206.230306 73.659934 194.35644 64.160841 Z M 194.35644 64.160841 " transform="matrix(0.062506,0,0,0.062506,0,13.438783)"/>
</g>
</svg>
